packages/core/src/svgs/tokens/mono/NOS.svg

<svg width="24" height="24" viewBox="0 0 24 24" fill="none" xmlns="http://www.w3.org/2000/svg">
<path d="M2 20.7499H3.87499V6.22499C3.87499 5.4875 5.03748 4.74375 5.82498 5.64999L12.625 18.875H10.125L6.68748 12H4.49998L8.87497 20.7499H15.7624L7.65623 4.86249C7.65623 4.86249 6.85623 3.2625 4.95624 3.2625C3.05624 3.2625 2 5.19999 2 5.78124V20.7499ZM22 3.25H20.1249V17.7938C20.1249 18.525 18.975 19.2687 18.1875 18.3625L11.3749 5.12499H13.8749L17.3125 12H19.5L15.1374 3.25H8.24997L16.3563 19.15C16.3563 19.15 17.1562 20.7499 19.0625 20.7499C20.9687 20.7499 22 18.8124 22 18.2313V3.25Z" fill="white"/>
</svg>

<svg xmlns="http://www.w3.org/2000/svg" width="24" height="24" fill="none" viewBox="0 0 24 24">
    <path fill="#fff" d="M2 20.75h1.875V6.225c0-.737 1.162-1.481 1.95-.575l6.8 13.225h-2.5L6.687 12H4.5l4.375 8.75h6.887L7.656 4.862s-.8-1.6-2.7-1.6S2 5.2 2 5.783zm20-17.5h-1.875v14.544c0 .731-1.15 1.475-1.937.569L11.375 5.125h2.5L17.313 12H19.5l-4.363-8.75H8.25l8.106 15.9s.8 1.6 2.706 1.6c1.908 0 2.938-1.938 2.938-2.52z"/>
</svg>
